svg/android_auto.svg

<svg xmlns="http://www.w3.org/2000/svg" viewBox="0 0 24 24"><path d="M22.78 17.91c.16.25.22.51.22.79 0 .38-.13.69-.43.94s-.63.36-1.01.36h-2.48L12.42 8h-.84L4.92 20H2.39c-.47 0-.86-.2-1.17-.62S.89 18.5 1.17 18l9.61-16.31C11.09 1.22 11.5 1 12 1c.53 0 .92.22 1.17.69zm-18 4.4L12 9.38l7.22 12.93-.72.69-6.5-2.66L5.44 23z"/></svg>

<?xml version="1.0" encoding="UTF-8"?><!DOCTYPE svg PUBLIC "-//W3C//DTD SVG 1.1//EN" "http://www.w3.org/Graphics/SVG/1.1/DTD/svg11.dtd"><svg xmlns="http://www.w3.org/2000/svg" xmlns:xlink="http://www.w3.org/1999/xlink" version="1.1" id="mdi-android-auto" width="24" height="24" viewBox="0 0 24 24"><path d="M22.78,17.91C22.94,18.16 23,18.42 23,18.7C23,19.08 22.87,19.39 22.57,19.64C22.27,19.89 21.94,20 21.56,20H19.08L12.42,8H11.58L4.92,20H2.39C1.92,20 1.53,19.8 1.22,19.38C0.91,18.96 0.89,18.5 1.17,18L10.78,1.69C11.09,1.22 11.5,1 12,1C12.53,1 12.92,1.22 13.17,1.69L22.78,17.91M4.78,22.31L12,9.38L19.22,22.31L18.5,23L12,20.34L5.44,23L4.78,22.31Z" /></svg>
